client/src/assets/logo.svg

<svg id="eIbcpro36xf1" xmlns="http://www.w3.org/2000/svg" xmlns:xlink="http://www.w3.org/1999/xlink" viewBox="0 0 168 43" shape-rendering="geometricPrecision" text-rendering="geometricPrecision" project-id="4c0b17d04c534ef985b88445c06665f7" export-id="e4a297cdecf84329b28db94fad6b0bea" cached="false"><path d="M8.63281,8l7.23389,6.1803c.4295.3669.6771.9053.6771,1.4724v4.6577L9.30979,14.1302c-.42946-.3669-.67698-.9054-.67698-1.4725v-4.6577Z" fill="#f97a00"/><path d="M8.63281,35.9999l7.23389-6.1803c.4295-.3669.6771-.9053.6771-1.4724v-4.6577L9.30979,29.8697c-.42946.3669-.67698.9053-.67698,1.4724v4.6578Z" fill="#f97a00"/><path d="M0,14.5166l7.13558,6.0622c.34594.2939.784.4551,1.2367.4551h5.75452L7.00881,14.9731c-.3462-.2947-.78494-.4565-1.23835-.4565h-5.77046Z" fill="#f97a00"/><path d="M0,29.4822l7.09169-6.0587c.34657-.2961.78624-.4587,1.24076-.4587h5.81155L7.00839,29.027c-.34597.2939-.78405.4552-1.23673.4552h-5.77166Z" fill="#f97a00"/><path d="M26.3719,8l-7.234,6.1803c-.4294.3669-.677.9053-.677,1.4724v4.6577l7.234-6.1802c.4294-.3669.677-.9054.677-1.4725v-4.6577Z" fill="#f97a00"/><path d="M26.3719,35.9999l-7.234-6.1803c-.4294-.3669-.677-.9053-.677-1.4724v-4.6577l7.234,6.1802c.4294.3669.677.9053.677,1.4724v4.6578Z" fill="#f97a00"/><path d="M35.0019,14.5166l-7.1356,6.0622c-.3459.2939-.7841.4551-1.2367.4551h-5.7546l7.1181-6.0608c.3461-.2947.7849-.4565,1.2383-.4565h5.7705Z" fill="#f97a00"/><path d="M34.9994,29.4822l-7.0917-6.0587c-.3465-.2961-.7863-.4587-1.2408-.4587h-5.8114L27.991,29.027c.346.2939.784.4552,1.2367.4552h5.7717Z" fill="#f97a00"/><text dx="0" dy="0" font-family="&quot;Arial&quot;" font-size="28" font-weight="400" transform="matrix(.584507 0 0 0.770603 12.489262 64.194177)" fill="#333"><![CDATA[
 
]]></text><text dx="0" dy="0" font-family="&quot;Arial&quot;" font-size="28" font-weight="400" transform="translate(44.227 20.953)" fill="#333"><![CDATA[
 
]]></text><text dx="0" dy="0" font-family="&quot;Arial&quot;" font-size="28" font-weight="400" transform="translate(39.313 31.394)" fill="#f97a00"><tspan y="0" font-weight="400"><![CDATA[
Quick Ai
]]></tspan></text></svg>

<svg width="168" height="43" viewBox="0 0 168 43" fill="none" xmlns="http://www.w3.org/2000/svg">
<path d="M53.256 32.308C51.8187 32.308 50.4747 32.0467 49.224 31.524C47.992 31.0013 46.9093 30.2827 45.976 29.368C45.0427 28.4347 44.3147 27.352 43.792 26.12C43.288 24.8693 43.036 23.5347 43.036 22.116C43.036 20.6973 43.288 19.3813 43.792 18.168C44.3147 16.936 45.0333 15.8627 45.948 14.948C46.8813 14.0147 47.964 13.296 49.196 12.792C50.428 12.2693 51.7627 12.008 53.2 12.008C54.6373 12.008 55.972 12.2693 57.204 12.792C58.436 13.296 59.5187 14.0147 60.452 14.948C61.3853 15.8627 62.104 16.936 62.608 18.168C63.1307 19.4 63.392 20.7253 63.392 22.144C63.392 23.5627 63.1307 24.888 62.608 26.12C62.104 27.352 61.3853 28.4347 60.452 29.368C59.5373 30.2827 58.464 31.0013 57.232 31.524C56 32.0467 54.6747 32.308 53.256 32.308ZM62.132 33.456L53.116 24.44L55.412 22.116L64.456 31.16L62.132 33.456ZM53.2 28.752C54.4507 28.752 55.5427 28.472 56.476 27.912C57.428 27.352 58.1653 26.5773 58.688 25.588C59.2293 24.5987 59.5 23.4413 59.5 22.116C59.5 21.1453 59.3413 20.2587 59.024 19.456C58.7253 18.6533 58.296 17.9627 57.736 17.384C57.176 16.7867 56.5133 16.3293 55.748 16.012C54.9827 15.6947 54.1333 15.536 53.2 15.536C51.968 15.536 50.876 15.816 49.924 16.376C48.9907 16.9173 48.2533 17.6827 47.712 18.672C47.1893 19.6613 46.928 20.8093 46.928 22.116C46.928 23.1053 47.0773 24.0107 47.376 24.832C47.6933 25.6533 48.1227 26.3533 48.664 26.932C49.224 27.5107 49.8867 27.9587 50.652 28.276C51.436 28.5933 52.2853 28.752 53.2 28.752ZM72.3607 32.28C71.1661 32.28 70.1021 32.028 69.1688 31.524C68.2541 31.02 67.5354 30.32 67.0128 29.424C66.4901 28.528 66.2288 27.492 66.2288 26.316V18.476H69.9248V26.232C69.9248 26.792 70.0181 27.2773 70.2048 27.688C70.3914 28.08 70.6714 28.3787 71.0448 28.584C71.4181 28.7893 71.8568 28.892 72.3607 28.892C73.1261 28.892 73.7234 28.6587 74.1528 28.192C74.5821 27.7253 74.7968 27.072 74.7968 26.232V18.476H78.4648V26.316C78.4648 27.5107 78.2034 28.556 77.6808 29.452C77.1768 30.348 76.4581 31.048 75.5248 31.552C74.6101 32.0373 73.5554 32.28 72.3607 32.28ZM81.3857 32V18.476H85.0817V32H81.3857ZM83.2337 16.292C82.6364 16.292 82.1417 16.096 81.7497 15.704C81.3577 15.2933 81.1617 14.7893 81.1617 14.192C81.1617 13.6133 81.3577 13.1187 81.7497 12.708C82.1417 12.2973 82.6364 12.092 83.2337 12.092C83.8497 12.092 84.3444 12.2973 84.7177 12.708C85.1097 13.1187 85.3057 13.6133 85.3057 14.192C85.3057 14.7893 85.1097 15.2933 84.7177 15.704C84.3444 16.096 83.8497 16.292 83.2337 16.292ZM94.715 32.28C93.3337 32.28 92.0924 31.972 90.991 31.356C89.8897 30.74 89.0217 29.9 88.387 28.836C87.7524 27.772 87.435 26.5773 87.435 25.252C87.435 23.908 87.7524 22.704 88.387 21.64C89.0217 20.576 89.8897 19.736 90.991 19.12C92.111 18.4853 93.3524 18.168 94.715 18.168C95.779 18.168 96.759 18.364 97.655 18.756C98.551 19.148 99.3257 19.708 99.979 20.436L97.627 22.816C97.2724 22.424 96.843 22.1253 96.339 21.92C95.8537 21.7147 95.3124 21.612 94.715 21.612C94.043 21.612 93.4364 21.7707 92.895 22.088C92.3724 22.3867 91.9524 22.8067 91.635 23.348C91.3364 23.8707 91.187 24.496 91.187 25.224C91.187 25.9333 91.3364 26.568 91.635 27.128C91.9524 27.6693 92.3724 28.0987 92.895 28.416C93.4364 28.7147 94.043 28.864 94.715 28.864C95.331 28.864 95.8817 28.7613 96.367 28.556C96.871 28.332 97.3004 28.0147 97.655 27.604L100.035 29.984C99.3444 30.7307 98.551 31.3 97.655 31.692C96.759 32.084 95.779 32.28 94.715 32.28ZM110.736 32L105.5 25.028L110.708 18.476H114.936L108.832 25.868L108.972 24.076L115.216 32H110.736ZM102.112 32V11.756H105.78V32H102.112ZM118.988 32.28C118.316 32.28 117.765 32.056 117.336 31.608C116.906 31.16 116.692 30.6093 116.692 29.956C116.692 29.3027 116.906 28.752 117.336 28.304C117.765 27.856 118.316 27.632 118.988 27.632C119.641 27.632 120.182 27.856 120.612 28.304C121.041 28.752 121.256 29.3027 121.256 29.956C121.256 30.6093 121.041 31.16 120.612 31.608C120.182 32.056 119.641 32.28 118.988 32.28ZM129.971 32.28C128.739 32.28 127.629 31.972 126.639 31.356C125.65 30.74 124.875 29.9 124.315 28.836C123.755 27.772 123.475 26.5773 123.475 25.252C123.475 23.908 123.755 22.704 124.315 21.64C124.875 20.576 125.65 19.736 126.639 19.12C127.629 18.504 128.739 18.196 129.971 18.196C130.942 18.196 131.81 18.392 132.575 18.784C133.341 19.176 133.947 19.7267 134.395 20.436C134.862 21.1267 135.114 21.9107 135.151 22.788V27.66C135.114 28.556 134.862 29.3493 134.395 30.04C133.947 30.7307 133.341 31.2813 132.575 31.692C131.81 32.084 130.942 32.28 129.971 32.28ZM130.643 28.892C131.67 28.892 132.501 28.556 133.135 27.884C133.77 27.1933 134.087 26.3067 134.087 25.224C134.087 24.5147 133.938 23.8893 133.639 23.348C133.359 22.788 132.958 22.3587 132.435 22.06C131.931 21.7427 131.334 21.584 130.643 21.584C129.971 21.584 129.374 21.7427 128.851 22.06C128.347 22.3587 127.946 22.788 127.647 23.348C127.367 23.8893 127.227 24.5147 127.227 25.224C127.227 25.952 127.367 26.596 127.647 27.156C127.946 27.6973 128.347 28.1267 128.851 28.444C129.374 28.7427 129.971 28.892 130.643 28.892ZM133.891 32V28.36L134.479 25.056L133.891 21.808V18.476H137.531V32H133.891ZM140.776 32V18.476H144.472V32H140.776ZM142.624 16.292C142.027 16.292 141.532 16.096 141.14 15.704C140.748 15.2933 140.552 14.7893 140.552 14.192C140.552 13.6133 140.748 13.1187 141.14 12.708C141.532 12.2973 142.027 12.092 142.624 12.092C143.24 12.092 143.735 12.2973 144.108 12.708C144.5 13.1187 144.696 13.6133 144.696 14.192C144.696 14.7893 144.5 15.2933 144.108 15.704C143.735 16.096 143.24 16.292 142.624 16.292Z" fill="#5044E5"/>
<path d="M8.63281 8L15.8667 14.1803C16.2962 14.5472 16.5438 15.0856 16.5438 15.6527V20.3104L9.30979 14.1302C8.88033 13.7633 8.63281 13.2248 8.63281 12.6577V8Z" fill="#5044E5"/>
<path d="M8.63281 35.9999L15.8667 29.8196C16.2962 29.4527 16.5438 28.9143 16.5438 28.3472V23.6895L9.30979 29.8697C8.88033 30.2366 8.63281 30.775 8.63281 31.3421V35.9999Z" fill="#5044E5"/>
<path d="M0 14.5166L7.13558 20.5788C7.48152 20.8727 7.91958 21.0339 8.37228 21.0339H14.1268L7.00881 14.9731C6.66261 14.6784 6.22387 14.5166 5.77046 14.5166H0Z" fill="#5044E5"/>
<path d="M0 29.4822L7.09169 23.4235C7.43826 23.1274 7.87793 22.9648 8.33245 22.9648H14.144L7.00839 29.027C6.66242 29.3209 6.22434 29.4822 5.77166 29.4822H0Z" fill="#5044E5"/>
<path d="M26.3719 8L19.1379 14.1803C18.7085 14.5472 18.4609 15.0856 18.4609 15.6527V20.3104L25.6949 14.1302C26.1243 13.7633 26.3719 13.2248 26.3719 12.6577V8Z" fill="#5044E5"/>
<path d="M26.3719 35.9999L19.1379 29.8196C18.7085 29.4527 18.4609 28.9143 18.4609 28.3472V23.6895L25.6949 29.8697C26.1243 30.2366 26.3719 30.775 26.3719 31.3421V35.9999Z" fill="#5044E5"/>
<path d="M35.0019 14.5166L27.8663 20.5788C27.5204 20.8727 27.0822 21.0339 26.6296 21.0339H20.875L27.9931 14.9731C28.3392 14.6784 28.778 14.5166 29.2314 14.5166H35.0019Z" fill="#5044E5"/>
<path d="M34.9994 29.4822L27.9077 23.4235C27.5612 23.1274 27.1214 22.9648 26.6669 22.9648H20.8555L27.991 29.027C28.337 29.3209 28.775 29.4822 29.2277 29.4822H34.9994Z" fill="#5044E5"/>
</svg>
